packages/ui-icons/svg/Line/calculator-desmos.svg

<svg viewBox="0 0 1920 1920" xmlns="http://www.w3.org/2000/svg">
    <path d="M1440 0c176.73 0 320 143.269 320 320v1280c0 176.73-143.27 320-320 320H480c-176.731 0-320-143.27-320-320V320C160 143.269 303.269 0 480 0Zm0 106.667H480c-117.821 0-213.333 95.512-213.333 213.333v1280c0 117.82 95.512 213.33 213.333 213.33h960c117.82 0 213.33-95.51 213.33-213.33V320c0-117.821-95.51-213.333-213.33-213.333ZM586.667 1493.33c58.91 0 106.666 47.76 106.666 106.67 0 58.91-47.756 106.67-106.666 106.67H480c-58.91 0-106.667-47.76-106.667-106.67 0-58.91 47.757-106.67 106.667-106.67h106.667Zm426.663 0c58.91 0 106.67 47.76 106.67 106.67 0 58.91-47.76 106.67-106.67 106.67H906.667C847.756 1706.67 800 1658.91 800 1600c0-58.91 47.756-106.67 106.667-106.67h106.663Zm426.67 0c58.91 0 106.67 47.76 106.67 106.67 0 58.91-47.76 106.67-106.67 106.67h-106.67c-58.91 0-106.66-47.76-106.66-106.67 0-58.91 47.75-106.67 106.66-106.67H1440Zm-853.333-320c58.91 0 106.666 47.76 106.666 106.67 0 58.91-47.756 106.67-106.666 106.67H480c-58.91 0-106.667-47.76-106.667-106.67 0-58.91 47.757-106.67 106.667-106.67h106.667Zm426.663 0c58.91 0 106.67 47.76 106.67 106.67 0 58.91-47.76 106.67-106.67 106.67H906.667C847.756 1386.67 800 1338.91 800 1280c0-58.91 47.756-106.67 106.667-106.67h106.663Zm426.67 0c58.91 0 106.67 47.76 106.67 106.67 0 58.91-47.76 106.67-106.67 106.67h-106.67c-58.91 0-106.66-47.76-106.66-106.67 0-58.91 47.75-106.67 106.66-106.67H1440ZM586.667 853.333c58.91 0 106.666 47.757 106.666 106.667 0 58.91-47.756 106.67-106.666 106.67H480c-58.91 0-106.667-47.76-106.667-106.67 0-58.91 47.757-106.667 106.667-106.667h106.667Zm426.663 0c58.91 0 106.67 47.757 106.67 106.667 0 58.91-47.76 106.67-106.67 106.67H906.667C847.756 1066.67 800 1018.91 800 960c0-58.91 47.756-106.667 106.667-106.667h106.663Zm426.67 0c58.91 0 106.67 47.757 106.67 106.667 0 58.91-47.76 106.67-106.67 106.67h-106.67c-58.91 0-106.66-47.76-106.66-106.67 0-58.91 47.75-106.667 106.66-106.667H1440ZM825.656 324.944c85.783 15.792 143.8 75.528 187.404 120.421 3.08 3.177 6.09 6.28 9.04 9.287 49.59 50.626 83.01 78.681 129.9 78.681 54.47 0 105.21-26.083 148.97-64.497 43.7-38.365 75.78-85.114 91.62-115.86 13.48-26.186 45.64-36.481 71.83-22.994 26.19 13.487 36.48 45.648 22.99 71.834-21.08 40.945-61 98.831-116.07 147.179C1316.33 597.293 1241.53 640 1152 640c-97.11 0-159.689-63.326-206.101-110.708l-2.088-2.132c-50.32-51.381-86.03-87.843-137.467-97.312-55.901-10.291-114.474 5.17-166.557 36.244-52.433 31.283-92.9 75.277-112.373 113.086-13.486 26.186-45.648 36.481-71.834 22.994-26.186-13.487-36.481-45.648-22.994-71.834 29.758-57.779 85.291-115.72 152.55-155.848 67.609-40.338 152.421-65.764 240.52-49.546Z" fill-rule="evenodd"/>
</svg>

<svg viewBox="0 0 1920 1920" version="1.1" xmlns="http://www.w3.org/2000/svg">
    <path d="M1440,0 C1616.73,0 1760,143.269 1760,320 L1760,320 L1760,1600 C1760,1776.73 1616.73,1920 1440,1920 L1440,1920 L480,1920 C303.269,1920 160,1776.73 160,1600 L160,1600 L160,320 C160,143.269 303.269,0 480,0 L480,0 Z M1440,106.667 L480,106.667 C362.179,106.667 266.667,202.179 266.667,320 L266.667,1600 C266.667,1717.82 362.179,1813.33 480,1813.33 L1440,1813.33 C1557.82,1813.33 1653.33,1717.82 1653.33,1600 L1653.33,320 C1653.33,202.179 1557.82,106.667 1440,106.667 Z M586.667,1493.33 C645.577,1493.33 693.333,1541.09 693.333,1600 C693.333,1658.91 645.577,1706.67 586.667,1706.67 L480,1706.67 C421.09,1706.67 373.333,1658.91 373.333,1600 C373.333,1541.09 421.09,1493.33 480,1493.33 L586.667,1493.33 Z M1013.33,1493.33 C1072.24,1493.33 1120,1541.09 1120,1600 C1120,1658.91 1072.24,1706.67 1013.33,1706.67 L906.667,1706.67 C847.756,1706.67 800,1658.91 800,1600 C800,1541.09 847.756,1493.33 906.667,1493.33 L1013.33,1493.33 Z M1440,1493.33 C1498.91,1493.33 1546.67,1541.09 1546.67,1600 C1546.67,1658.91 1498.91,1706.67 1440,1706.67 L1333.33,1706.67 C1274.42,1706.67 1226.67,1658.91 1226.67,1600 C1226.67,1541.09 1274.42,1493.33 1333.33,1493.33 L1440,1493.33 Z M586.667,1173.33 C645.577,1173.33 693.333,1221.09 693.333,1280 C693.333,1338.91 645.577,1386.67 586.667,1386.67 L480,1386.67 C421.09,1386.67 373.333,1338.91 373.333,1280 C373.333,1221.09 421.09,1173.33 480,1173.33 L586.667,1173.33 Z M1013.33,1173.33 C1072.24,1173.33 1120,1221.09 1120,1280 C1120,1338.91 1072.24,1386.67 1013.33,1386.67 L906.667,1386.67 C847.756,1386.67 800,1338.91 800,1280 C800,1221.09 847.756,1173.33 906.667,1173.33 L1013.33,1173.33 Z M1440,1173.33 C1498.91,1173.33 1546.67,1221.09 1546.67,1280 C1546.67,1338.91 1498.91,1386.67 1440,1386.67 L1333.33,1386.67 C1274.42,1386.67 1226.67,1338.91 1226.67,1280 C1226.67,1221.09 1274.42,1173.33 1333.33,1173.33 L1440,1173.33 Z M586.667,853.333 C645.577,853.333 693.333,901.09 693.333,960 C693.333,1018.91 645.577,1066.67 586.667,1066.67 L480,1066.67 C421.09,1066.67 373.333,1018.91 373.333,960 C373.333,901.09 421.09,853.333 480,853.333 L586.667,853.333 Z M1013.33,853.333 C1072.24,853.333 1120,901.09 1120,960 C1120,1018.91 1072.24,1066.67 1013.33,1066.67 L906.667,1066.67 C847.756,1066.67 800,1018.91 800,960 C800,901.09 847.756,853.333 906.667,853.333 L1013.33,853.333 Z M1440,853.333 C1498.91,853.333 1546.67,901.09 1546.67,960 C1546.67,1018.91 1498.91,1066.67 1440,1066.67 L1333.33,1066.67 C1274.42,1066.67 1226.67,1018.91 1226.67,960 C1226.67,901.09 1274.42,853.333 1333.33,853.333 L1440,853.333 Z M825.656,324.944 C911.439,340.736 969.456,400.472 1013.06,445.365 C1016.14,448.542 1019.15,451.645 1022.1,454.652 C1071.69,505.278 1105.11,533.333 1152,533.333 C1206.47,533.333 1257.21,507.25 1300.97,468.836 C1344.67,430.471 1376.75,383.722 1392.59,352.976 C1406.07,326.79 1438.23,316.495 1464.42,329.982 C1490.61,343.469 1500.9,375.63 1487.41,401.816 C1466.33,442.761 1426.41,500.647 1371.34,548.995 C1316.33,597.293 1241.53,640 1152,640 C1054.89,640 992.311,576.674 945.899,529.292 C945.2,528.579 944.504,527.868 943.811,527.16 C893.491,475.779 857.781,439.317 806.344,429.848 C750.443,419.557 691.87,435.018 639.787,466.092 C587.354,497.375 546.887,541.369 527.414,579.178 C513.928,605.364 481.766,615.659 455.58,602.172 C429.394,588.685 419.099,556.524 432.586,530.338 C462.344,472.559 517.877,414.618 585.136,374.49 C652.745,334.152 737.557,308.726 825.656,324.944 Z" stroke="none" stroke-width="1" fill-rule="evenodd"/>
</svg>
